src/app/assets/img/phone-icon-link.svg

<svg width="32" height="32" viewBox="0 0 32 32" fill="none" xmlns="http://www.w3.org/2000/svg">
<g clip-path="url(#clip0_1229_53778)">
<path fill-rule="evenodd" clip-rule="evenodd" d="M16.8612 1.59686C24.3375 1.59686 30.4066 7.6785 30.4066 15.1702C30.4066 15.6109 30.7636 15.9686 31.2034 15.9686C31.6433 15.9686 32.0002 15.6109 32.0002 15.1702C32.0002 6.79784 25.2172 0 16.8612 0C16.4214 0 16.0645 0.357696 16.0645 0.798429C16.0645 1.23916 16.4214 1.59686 16.8612 1.59686Z" fill="#27C6B0"/>
<path fill-rule="evenodd" clip-rule="evenodd" d="M16.8612 6.38739C21.6985 6.38739 25.6259 10.3228 25.6259 15.1701C25.6259 15.6109 25.9829 15.9685 26.4227 15.9685C26.8625 15.9685 27.2195 15.6109 27.2195 15.1701C27.2195 9.44139 22.5782 4.79053 16.8612 4.79053C16.4214 4.79053 16.0645 5.14822 16.0645 5.58896C16.0645 6.02969 16.4214 6.38739 16.8612 6.38739Z" fill="#27C6B0"/>
<path fill-rule="evenodd" clip-rule="evenodd" d="M16.8612 11.1779C19.0293 11.1779 20.7886 12.9417 20.7886 15.1134C20.7886 15.5541 21.1456 15.9118 21.5854 15.9118C22.0252 15.9118 22.3822 15.5541 22.3822 15.1134C22.3822 12.0602 19.9081 9.58105 16.8612 9.58105C16.4214 9.58105 16.0645 9.93875 16.0645 10.3795C16.0645 10.8202 16.4214 11.1779 16.8612 11.1779Z" fill="#27C6B0"/>
<path fill-rule="evenodd" clip-rule="evenodd" d="M7.64954 2.10738L11.1532 5.68372C11.8648 6.41003 11.8806 7.56864 11.1892 8.31421L9.56721 10.0631C8.83195 10.8559 8.42315 11.8981 8.42288 12.9804C8.42282 13.2151 8.46783 13.4477 8.55544 13.6654L9.20024 15.2676C10.6033 18.7538 13.4412 21.4625 16.9843 22.6971L19.0044 23.4011C20.1629 23.5876 21.3415 23.2186 22.1881 22.4046L23.9462 20.7141C24.7034 19.9859 25.9063 20.0107 26.6331 20.7694L29.86 24.1382C30.5416 24.8497 30.5682 25.965 29.9214 26.7084L26.2805 30.893C25.6685 31.5964 24.7827 32.0001 23.8514 32.0001H23.3055C22.3153 32.0001 21.3292 31.8742 20.3707 31.6255C10.6294 29.0981 3.004 21.5055 0.419797 11.7604L0.370807 11.5757C0.124647 10.6474 0 9.69102 0 8.73054V8.19466C0 7.20547 0.414129 6.26165 1.14157 5.59295L5.00868 2.03815C5.76367 1.34412 6.93179 1.37475 7.64954 2.10738Z" fill="#02836F"/>
</g>
<defs>
<clipPath id="clip0_1229_53778">
<rect width="32" height="32" fill="white"/>
</clipPath>
</defs>
</svg>

<svg xmlns="http://www.w3.org/2000/svg" width="32" height="32" fill="none">
  <g fill-rule="evenodd" clip-path="url(#customPrefix__phone-icon-link_svg__a)" clip-rule="evenodd">
    <path fill="#27C6B0" d="M16.861 1.597c7.476 0 13.546 6.082 13.546 13.573a.798.798 0 1 0 1.593 0C32 6.798 25.217 0 16.861 0a.798.798 0 0 0 0 1.597"/>
    <path fill="#27C6B0" d="M16.861 6.387c4.837 0 8.765 3.936 8.765 8.783a.798.798 0 1 0 1.593 0c0-5.729-4.64-10.38-10.358-10.38a.798.798 0 0 0 0 1.597"/>
    <path fill="#27C6B0" d="M16.861 11.178a3.933 3.933 0 0 1 3.928 3.935.798.798 0 1 0 1.593 0c0-3.053-2.474-5.532-5.52-5.532a.798.798 0 0 0 0 1.597"/>
    <path fill="#02836F" d="m7.65 2.107 3.503 3.577c.712.726.728 1.885.036 2.63l-1.622 1.75a4.3 4.3 0 0 0-1.144 2.916c0 .235.045.468.132.685l.645 1.603a13 13 0 0 0 7.784 7.43l2.02.703a3.74 3.74 0 0 0 3.184-.996l1.758-1.69a1.9 1.9 0 0 1 2.687.054l3.227 3.37c.682.71.708 1.826.061 2.57l-3.64 4.184A3.22 3.22 0 0 1 23.85 32h-.546c-.99 0-1.976-.126-2.934-.375A27.9 27.9 0 0 1 .42 11.76l-.05-.184A11 11 0 0 1 0 8.73v-.536c0-.99.414-1.933 1.142-2.602l3.867-3.555a1.9 1.9 0 0 1 2.64.07"/>
  </g>
  <defs>
    <clipPath id="customPrefix__phone-icon-link_svg__a">
      <path fill="#fff" d="M0 0h32v32H0z"/>
    </clipPath>
  </defs>
</svg>
